assets/images/tools/sentry.svg

<svg height="41" viewBox="0 0 181 41" width="181" xmlns="http://www.w3.org/2000/svg"><path d="m26.1261261 2.03603604c-.7612597-1.26341454-2.1285671-2.03588652-3.6036036-2.03588652-1.4750364 0-2.8423439.77247198-3.6036036 2.03588652l-5.9279279 10.15315316c9.2151017 4.6007066 15.3009129 13.7414236 15.990991 24.018018h-4.1621622c-.6887628-8.8084235-5.9870602-16.5947959-13.9279279-20.4684685l-5.48648649 9.4864865c4.45847277 1.9995586 7.59218349 6.1314393 8.31531529 10.963964h-9.55855854c-.23029139-.0162897-.43686672-.1475387-.54944778-.3490951s-.11600643-.4462765-.00911078-.6509049l2.64864865-4.5045045c-.89735472-.7486973-1.92292409-1.3286324-3.02702702-1.7117117l-2.62162163 4.5045045c-.55129079.9456017-.70056251 2.0727177-.4144249 3.1292258.28613762 1.0565081.9838068 1.9542443 1.93694743 2.4923958.62170877.3502925 1.32244727.5363293 2.03603603.5405405h13.09009014c.4944751-6.1016774-2.2395025-12.0173215-7.2072073-15.5945946l2.0810811-3.6036036c6.2714114 4.3073576 9.8000612 11.6078941 9.2792793 19.1981982h11.0900901c.5255751-11.500884-5.1056298-22.4132738-14.7837838-28.6486486l4.2072072-7.20720722c.1951305-.32693886.6173083-.43549885.945946-.24324324.4774774.26126126 18.2792792 31.32432436 18.6126126 31.68468466.1195323.2143325.1152119.4762468-.0113243.6865203-.1265363.2102735-.3559338.3367432-.6012883.3314977h-4.2882883c.054054 1.1471472.054054 2.2912913 0 3.4325212h4.3063063c1.1045113.007141 2.1660092-.4278095 2.9478791-1.207987s1.2191195-1.8407305 1.2143227-2.9452549c.0004966-.7222729-.1923677-1.4315159-.5585982-2.054054zm85.8738739 23.44144146-13.2972973-17.17117119h-3.3153153v23.01801799h3.3603603v-17.6396396l13.6756753 17.6396396h2.936937v-23.01801799h-3.36036zm-33.4864865-4.2702703h11.9189189v-2.990991h-11.9279279v-6.9279279h13.4504505v-2.990991h-16.8738739v23.027027h17.045045v-2.990991h-13.6216216zm-14.018018-2.9189189c-4.6396396-1.1171171-5.9369369-2-5.9369369-4.1441442 0-1.9279279 1.7027027-3.2342342 4.2432432-3.2342342 2.3136268.0677607 4.5451521.8726249 6.3693694 2.2972973l1.8018018-2.5495495c-2.3094027-1.81037377-5.1743618-2.76536012-8.1081081-2.70270275-4.5585586 0-7.7387388 2.70270275-7.7387388 6.54954955 0 4.1441441 2.7027027 5.5765766 7.6216216 6.7747748 4.3783784 1.009009 5.7207208 1.9459459 5.7207208 4.045045s-1.8018018 3.3963964-4.5855856 3.3963964c-2.7714433-.0126956-5.438206-1.0601229-7.4774775-2.9369369l-2.027027 2.4234234c2.6120112 2.2443641 5.9435921 3.4753225 9.3873874 3.4684969 4.9369369 0 8.1081081-2.6576861 8.1081081-6.7657942-.0270271-3.4774775-2.0810811-5.3423423-7.3783784-6.6216216zm111.8108105-9.98198199-6.927928 10.81081079-6.882883-10.81081079h-4.018018l9.090091 13.91891889v9.1081081h3.459459v-9.2162162l9.153153-13.81081079zm-58.225225 3.11711709h7.540541v19.9099099h3.459459v-19.9099099h7.540541v-3.11711709h-18.531532zm34.540541 10.9189189c3.477477-.9639639 5.405405-3.3963964 5.405405-6.8738738 0-4.4234235-3.234234-7.20720724-8.45045-7.20720724h-10.234235v23.05405404h3.423424v-8.2702703h5.810811l5.837837 8.2882883h4l-6.306306-8.8468468zm-9.864865-2.2522522v-8.7387387h6.459459c3.36937 0 5.297298 1.5945945 5.297298 4.3603603s-2.063064 4.3783784-5.261262 4.3783784z" fill="#362d59" transform="translate(0 .711836)"/></svg>

<?xml version="1.0" encoding="UTF-8"?>
<svg width="181px" height="41px" viewBox="0 0 181 41" version="1.1" xmlns="http://www.w3.org/2000/svg" xmlns:xlink="http://www.w3.org/1999/xlink">
    <title>logo_sentry</title>
    <g id="Home" stroke="none" stroke-width="1" fill="none" fill-rule="evenodd">
        <g id="methodologie" transform="translate(-710.000000, -7950.000000)" fill="#362D59" fill-rule="nonzero">
            <g id="logo_sentry" transform="translate(710.000000, 7950.711836)">
                <path d="M26.1261261,2.03603604 C25.3648664,0.772621503 23.997559,0.000149521972 22.5225225,0.000149521972 C21.0474861,0.000149521972 19.6801786,0.772621503 18.9189189,2.03603604 L12.990991,12.1891892 C22.2060927,16.7898958 28.2919039,25.9306128 28.981982,36.2072072 L24.8198198,36.2072072 C24.131057,27.3987837 18.8327596,19.6124113 10.8918919,15.7387387 L5.40540541,25.2252252 C9.86387818,27.2247838 12.9975889,31.3566645 13.7207207,36.1891892 L4.16216216,36.1891892 C3.93187077,36.1728995 3.72529544,36.0416505 3.61271438,35.8400941 C3.50013332,35.6385377 3.49670795,35.3938176 3.6036036,35.1891892 L6.25225225,30.6846847 C5.35489753,29.9359874 4.32932816,29.3560523 3.22522523,28.972973 L0.603603604,33.4774775 C0.0523128124,34.4230792 -0.0969589109,35.5501952 0.189178704,36.6067033 C0.475316318,37.6632114 1.1729855,38.5609476 2.12612613,39.0990991 C2.7478349,39.4493916 3.4485734,39.6354284 4.16216216,39.6396396 L17.2522523,39.6396396 C17.7467274,33.5379622 15.0127498,27.6223181 10.045045,24.045045 L12.1261261,20.4414414 C18.3975375,24.748799 21.9261873,32.0493355 21.4054054,39.6396396 L32.4954955,39.6396396 C33.0210706,28.1387556 27.3898657,17.2263658 17.7117117,10.990991 L21.9189189,3.78378378 C22.1140494,3.45684492 22.5362272,3.34828493 22.8648649,3.54054054 C23.3423423,3.8018018 41.1441441,34.8648649 41.4774775,35.2252252 C41.5970098,35.4395577 41.5926894,35.701472 41.4661532,35.9117455 C41.3396169,36.122019 41.1102194,36.2484887 40.8648649,36.2432432 L36.5765766,36.2432432 C36.6306306,37.3903904 36.6306306,38.5345345 36.5765766,39.6757644 L40.8828829,39.6757644 C41.9873942,39.6829054 43.0488921,39.2479549 43.830762,38.4677774 C44.6126319,37.6875999 45.0498815,36.6270469 45.0450847,35.5225225 C45.0455813,34.8002496 44.852717,34.0910066 44.4864865,33.4684685 L26.1261261,2.03603604 Z M112,25.4774775 L98.7027027,8.30630631 L95.3873874,8.30630631 L95.3873874,31.3243243 L98.7477477,31.3243243 L98.7477477,13.6846847 L112.423423,31.3243243 L115.36036,31.3243243 L115.36036,8.30630631 L112,8.30630631 L112,25.4774775 Z M78.5135135,21.2072072 L90.4324324,21.2072072 L90.4324324,18.2162162 L78.5045045,18.2162162 L78.5045045,11.2882883 L91.954955,11.2882883 L91.954955,8.2972973 L75.0810811,8.2972973 L75.0810811,31.3243243 L92.1261261,31.3243243 L92.1261261,28.3333333 L78.5045045,28.3333333 L78.5135135,21.2072072 Z M64.4954955,18.2882883 L64.4954955,18.2882883 C59.8558559,17.1711712 58.5585586,16.2882883 58.5585586,14.1441441 C58.5585586,12.2162162 60.2612613,10.9099099 62.8018018,10.9099099 C65.1154286,10.9776706 67.3469539,11.7825348 69.1711712,13.2072072 L70.972973,10.6576577 C68.6635703,8.84728393 65.7986112,7.89229758 62.8648649,7.95495495 C58.3063063,7.95495495 55.1261261,10.6576577 55.1261261,14.5045045 C55.1261261,18.6486486 57.8288288,20.0810811 62.7477477,21.2792793 C67.1261261,22.2882883 68.4684685,23.2252252 68.4684685,25.3243243 C68.4684685,27.4234234 66.6666667,28.7207207 63.8828829,28.7207207 C61.1114396,28.7080251 58.4446769,27.6605978 56.4054054,25.7837838 L54.3783784,28.2072072 C56.9903896,30.4515713 60.3219705,31.6825297 63.7657658,31.6757041 C68.7027027,31.6757041 71.8738739,29.018018 71.8738739,24.9099099 C71.8468468,21.4324324 69.7927928,19.5675676 64.4954955,18.2882883 Z M176.306306,8.30630631 L169.378378,19.1171171 L162.495495,8.30630631 L158.477477,8.30630631 L167.567568,22.2252252 L167.567568,31.3333333 L171.027027,31.3333333 L171.027027,22.1171171 L180.18018,8.30630631 L176.306306,8.30630631 Z M118.081081,11.4234234 L125.621622,11.4234234 L125.621622,31.3333333 L129.081081,31.3333333 L129.081081,11.4234234 L136.621622,11.4234234 L136.621622,8.30630631 L118.09009,8.30630631 L118.081081,11.4234234 Z M152.621622,22.3423423 C156.099099,21.3783784 158.027027,18.9459459 158.027027,15.4684685 C158.027027,11.045045 154.792793,8.26126126 149.576577,8.26126126 L139.342342,8.26126126 L139.342342,31.3153153 L142.765766,31.3153153 L142.765766,23.045045 L148.576577,23.045045 L154.414414,31.3333333 L158.414414,31.3333333 L152.108108,22.4864865 L152.621622,22.3423423 Z M142.756757,20.0900901 L142.756757,11.3513514 L149.216216,11.3513514 C152.585586,11.3513514 154.513514,12.9459459 154.513514,15.7117117 C154.513514,18.4774775 152.45045,20.0900901 149.252252,20.0900901 L142.756757,20.0900901 Z" id="Shape"></path>
            </g>
        </g>
    </g>
</svg>
